X:147
T: DER MEYEN ISCH GEKOMMEN
N: E1237
O: Europa, Mitteleuropa, Schweiz, Zuerich
R: Ansinge -, Brauchtums - Lied, Kirchen - Fest, Sommer - Tags - Lied
M: 3/8
L: 1/16
K: G
G2 | B2d2c2 | B2G2
A2 | B2d2c2 | A4
G2 | B2d2c2 | B2G2
A2 | B2dcAF | G4
A2 | B2d2c2 | A4
GA | B2d2c2 | A4
G2 | B2d2c2 | B2G2
A2 | B4A2 | G4
A2 | B2d2c2 | A4
GA | B2d2c2 | A4
G2 | B2d2c2 | B2G2
A2 | B4A2 | G4

@@@ Tune index: 4831
